Newaita-dark/actions/scalable/filename-discnumber-amarok.svg

<?xml version="1.0" encoding="UTF-8"?>
<svg xmlns="http://www.w3.org/2000/svg" xmlns:xlink="http://www.w3.org/1999/xlink" width="512pt" height="512pt" viewBox="0 0 512 512" version="1.1">
<g id="surface1">
<path style=" stroke:none;fill-rule:nonzero;fill:rgb(74.117649%,74.117649%,74.117649%);fill-opacity:1;" d="M 142.886719 25.167969 C 134.09375 25.167969 127.011719 32.25 127.011719 41.046875 L 127.011719 131.011719 L 37.046875 131.011719 C 28.25 131.011719 21.167969 138.09375 21.167969 146.890625 C 21.167969 155.683594 28.25 162.765625 37.046875 162.765625 L 127.011719 162.765625 L 127.011719 353.285156 L 37.046875 353.285156 C 28.25 353.285156 21.167969 360.363281 21.167969 369.160156 C 21.167969 377.957031 28.25 385.035156 37.046875 385.035156 L 127.011719 385.035156 L 127.011719 475.003906 C 127.011719 483.800781 134.09375 490.878906 142.886719 490.878906 C 151.683594 490.878906 158.765625 483.800781 158.765625 475.003906 L 158.765625 385.035156 L 349.285156 385.035156 L 349.285156 475.003906 C 349.285156 483.800781 356.363281 490.878906 365.160156 490.878906 C 373.957031 490.878906 381.035156 483.800781 381.035156 475.003906 L 381.035156 385.035156 L 471.003906 385.035156 C 479.800781 385.035156 486.878906 377.957031 486.878906 369.160156 C 486.878906 360.363281 479.800781 353.285156 471.003906 353.285156 L 381.035156 353.285156 L 381.035156 162.765625 L 471.003906 162.765625 C 479.800781 162.765625 486.878906 155.683594 486.878906 146.890625 C 486.878906 138.09375 479.800781 131.011719 471.003906 131.011719 L 381.035156 131.011719 L 381.035156 41.046875 C 381.035156 32.25 373.957031 25.167969 365.160156 25.167969 C 356.363281 25.167969 349.285156 32.25 349.285156 41.046875 L 349.285156 131.011719 L 158.765625 131.011719 L 158.765625 41.046875 C 158.765625 32.25 151.683594 25.167969 142.886719 25.167969 Z M 158.765625 162.765625 L 349.285156 162.765625 L 349.285156 353.285156 L 158.765625 353.285156 Z M 158.765625 162.765625 "/>
</g>
</svg>

<svg xmlns="http://www.w3.org/2000/svg" width="512pt" height="512pt" viewBox="0 0 512 512"><path d="M142.887 25.168a15.843 15.843 0 0 0-15.875 15.879v89.965H37.047a15.844 15.844 0 0 0-15.879 15.879 15.843 15.843 0 0 0 15.879 15.875h89.965v190.52H37.047a15.84 15.84 0 0 0-15.879 15.874 15.84 15.84 0 0 0 15.879 15.875h89.965v89.969a15.84 15.84 0 0 0 15.875 15.875 15.84 15.84 0 0 0 15.879-15.875v-89.969h190.52v89.969a15.838 15.838 0 0 0 15.874 15.875 15.838 15.838 0 0 0 15.875-15.875v-89.969h89.969a15.838 15.838 0 0 0 15.875-15.875 15.838 15.838 0 0 0-15.875-15.875h-89.969v-190.52h89.969a15.84 15.84 0 0 0 15.875-15.874 15.84 15.84 0 0 0-15.875-15.88h-89.969V41.048a15.84 15.84 0 0 0-15.875-15.879 15.84 15.84 0 0 0-15.875 15.879v89.965h-190.52V41.047a15.844 15.844 0 0 0-15.878-15.879zm15.879 137.598h190.52v190.52h-190.52zm0 0" fill="#bdbdbd"/></svg>
